Origami/64x64/apps/gmail-offline.svg

<svg width="64" height="64" preserveAspectRatio="xMidYMid" version="1.1" viewBox="0 0 64 64" xmlns="http://www.w3.org/2000/svg">
 <path d="m4 48.532v2c0 1.93 1.6 3.468 3.5 3.468h49c1.95 0 3.5-1.538 3.5-3.468v-2c0 1.93-1.55 3.468-3.5 3.468h-49c-1.9 0-3.5-1.538-3.5-3.468z" style="opacity:.2"/>
 <path d="m56.5 53h-49c-1.9 0-3.5-1.53538-3.5-3.467v-35.066c0-1.88208 1.55-3.467 3.5-3.467h49c1.9 0 3.5 1.53538 3.5 3.467v35.066c0 1.9316-1.55 3.467-3.5 3.467z" style="fill:#ffffff"/>
 <path d="m7.4882 11c-1.6992 0-3.0944 1.211-3.4182 2.7734-2.55e-4 0.0012 2.538e-4 0.0027 0 0.0039-0.06094 0.46162-0.062288 0.8164-0.062288 0.8164v34.91c0 1.92028 1.54384 3.518 3.4842 3.496h4.5158v-38.406c0-0.2342-0.024-0.4472-0.07-0.637-0.232-0.999-1.4152-2.1254-2.624-2.957z" style="fill:#4f8cf6"/>
 <path d="m55.308 11c-1.674 0.478-3.346 1.924-3.308 3.496v38.504h4.43c2.018 0 3.57-1.56 3.57-3.446v-35.086c0-1.9308-1.6-3.468-3.5-3.468z" style="fill:#4f8cf6"/>
 <path d="m56.094 11c-0.902-0.01-1.78 0.2494-2.492 0.8008l-21.602 16.1992-21.602-16.1992c-4.046-3.0856-8.7982 3.5384-4.7964 6.3984l24 18.0008c1.42164 1.06498 3.3752 1.06498 4.7968 0l22.786-17.09 1.214-0.9108c2.968-2.1218 1.544-7.1514-2.304-7.1992z" style="fill-rule:evenodd;fill:#4f8cf6"/>
 <path d="m7.5 11c-1.95 0-3.5 1.58655-3.5 3.46875v1c0-1.8822 1.55-3.46875 3.5-3.46875h49c1.9 0 3.5 1.53715 3.5 3.46875v-1c0-1.9316-1.6-3.46875-3.5-3.46875h-49z" style="fill:#ffffff;opacity:.1"/>
</svg>

<svg xmlns="http://www.w3.org/2000/svg" width="64" height="64" preserveAspectRatio="xMidYMid" version="1.1" viewBox="0 0 64 64">
 <path style="opacity:0.2" d="m 4,48.532 0,2 C 4,52.462 5.6,54 7.5,54 l 49,0 c 1.95,0 3.5,-1.538 3.5,-3.468 l 0,-2 C 60,50.462 58.45,52 56.5,52 l -49,0 C 5.6,52 4,50.462 4,48.532 Z"/>
 <path style="fill:#ffffff" d="m 56.5,53 -49,0 C 5.6,53 4,51.46462 4,49.533 L 4,14.467 C 4,12.58492 5.55,11 7.5,11 l 49,0 c 1.9,0 3.5,1.53538 3.5,3.467 l 0,35.066 C 60,51.4646 58.45,53 56.5,53 Z"/>
 <path style="fill:#4f8cf6" d="M 7.4882,11 C 5.789,11 4.3938,12.211 4.07,13.7734 c -2.55e-4,0.0012 2.538e-4,0.0027 0,0.0039 -0.06094,0.46162 -0.062288,0.8164 -0.062288,0.8164 l 0,34.91 c 0,1.92028 1.54384,3.518 3.4842,3.496 l 4.5158,0 0,-38.406 c 0,-0.2342 -0.024,-0.4472 -0.07,-0.637 -0.232,-0.999 -1.4152,-2.1254 -2.624,-2.957 z"/>
 <path style="fill:#4f8cf6" d="M 55.308,11 C 53.634,11.478 51.962,12.924 52,14.496 L 52,53 56.43,53 C 58.448,53 60,51.44 60,49.554 L 60,14.468 C 60,12.5372 58.4,11 56.5,11 Z"/>
 <path style="fill:#4f8cf6;fill-rule:evenodd" d="m 56.094,11 c -0.902,-0.01 -1.78,0.2494 -2.492,0.8008 L 32,28 10.398,11.8008 C 6.352,8.7152 1.5998,15.3392 5.6016,18.1992 l 24,18.0008 c 1.42164,1.06498 3.3752,1.06498 4.7968,0 l 22.786,-17.09 1.214,-0.9108 c 2.968,-2.1218 1.544,-7.1514 -2.304,-7.1992 z"/>
 <path style="opacity:0.1;fill:#ffffff" d="M 7.5 11 C 5.55 11 4 12.58655 4 14.46875 L 4 15.46875 C 4 13.58655 5.55 12 7.5 12 L 56.5 12 C 58.4 12 60 13.53715 60 15.46875 L 60 14.46875 C 60 12.53715 58.4 11 56.5 11 L 7.5 11 z"/>
</svg>
